sources/design/Outline/i.svg

<svg:svg xmlns:cc="http://creativecommons.org/ns#" xmlns:dc="http://purl.org/dc/elements/1.1/" xmlns:inkscape="http://www.inkscape.org/namespaces/inkscape" xmlns:rdf="http://www.w3.org/1999/02/22-rdf-syntax-ns#" xmlns:sodipodi="http://sodipodi.sourceforge.net/DTD/sodipodi-0.dtd" xmlns:svg="http://www.w3.org/2000/svg" xml:space="preserve" width="1000" height="1000" version="1.1" style="clip-rule:evenodd;fill-rule:evenodd;image-rendering:optimizeQuality;shape-rendering:geometricPrecision;text-rendering:geometricPrecision" viewBox="0 0 1000 1000" id="svg10" sodipodi:docname="i.svg" inkscape:version="1.1.1 (3bf5ae0d25, 2021-09-20)"><svg:text text-anchor="middle" x="71.856949" y="1.6950607" id="top" inkscape:label="top" style="clip-rule:evenodd;fill-rule:evenodd;image-rendering:optimizeQuality;shape-rendering:geometricPrecision;text-rendering:geometricPrecision">✛</svg:text><svg:metadata id="metadata14"><rdf:RDF><cc:Work rdf:about=""><dc:format>image/svg+xml</dc:format><dc:type rdf:resource="http://purl.org/dc/dcmitype/StillImage" /></cc:Work></rdf:RDF></svg:metadata><sodipodi:namedview pagecolor="#ffffff" bordercolor="#666666" borderopacity="1" objecttolerance="10" gridtolerance="10" guidetolerance="10" inkscape:pageopacity="0" inkscape:pageshadow="2" inkscape:window-width="1920" inkscape:window-height="1009" id="namedview12" showgrid="false" inkscape:zoom="0.84890884" inkscape:cx="157.2607" inkscape:cy="494.75277" inkscape:window-x="0" inkscape:window-y="0" inkscape:window-maximized="1" inkscape:current-layer="svg10" showguides="true" inkscape:guide-bbox="true" inkscape:document-rotation="0" inkscape:pagecheckerboard="0"><sodipodi:guide position="0,1000" orientation="0,1" id="guide16" inkscape:label="" inkscape:locked="true" inkscape:color="rgb(0,0,255)" /><sodipodi:guide position="1763.3122,2036.1693" orientation="1000,0" id="guide18" /><sodipodi:guide position="0,200" orientation="0,1" id="guide20" inkscape:label="base" inkscape:locked="true" inkscape:color="rgb(0,0,255)" /><inkscape:grid type="xygrid" id="grid24" originx="-473.37552" originy="-489.69235" /><sodipodi:guide position="0,0" orientation="0,1" id="guide34" inkscape:label="bottom" inkscape:locked="true" inkscape:color="rgb(0,0,255)" /><sodipodi:guide position="225.05109,1693.3186" orientation="0,1" id="guide44" inkscape:label="" inkscape:locked="false" inkscape:color="rgb(0,0,255)" /><sodipodi:guide position="0,900" orientation="0,1" id="guide46" inkscape:label="" inkscape:locked="true" inkscape:color="rgb(0,0,255)" /><sodipodi:guide position="146.82178,873.03098" orientation="1,0" id="guide841" inkscape:label="width" />    <sodipodi:guide position="312.16544,800.92091" orientation="0,-1" id="guide848" /></sodipodi:namedview>
 <svg:defs id="defs4"><inkscape:path-effect effect="fillet_chamfer" id="path-effect862" is_visible="true" lpeversion="1" satellites_param="F,0,1,1,0,13.369101,0,1 @ F,0,1,1,0,13.369101,0,1 @ F,0,1,1,0,13.369101,0,1 @ F,0,1,1,0,13.369101,0,1" unit="px" method="auto" mode="F" radius="0" chamfer_steps="1" flexible="false" use_knot_distance="true" apply_no_radius="true" apply_with_radius="true" only_selected="true" hide_knots="false" /><inkscape:path-effect effect="spiro" id="path-effect860" is_visible="true" lpeversion="1" /><inkscape:path-effect effect="skeletal" id="path-effect856" is_visible="true" lpeversion="1" pattern="M 0,5 C 0,2.24 2.24,0 5,0 7.76,0 10,2.24 10,5 10,7.76 7.76,10 5,10 2.24,10 0,7.76 0,5 Z" copytype="single_stretched" prop_scale="1" scale_y_rel="false" spacing="0" normal_offset="0" tang_offset="0" prop_units="false" vertical_pattern="false" hide_knot="false" fuse_tolerance="0" /><inkscape:path-effect effect="fillet_chamfer" id="path-effect852" is_visible="true" lpeversion="1" satellites_param="F,0,0,1,0,22.266307,0,1 @ F,0,0,1,0,0,0,1 @ F,0,0,1,0,0,0,1 @ F,0,0,1,0,20.14841,0,1 @ F,0,0,1,0,20.328464,0,1 @ F,0,0,1,0,0,0,1 @ F,0,0,1,0,0,0,1 @ F,0,0,1,0,24.932914,0,1" unit="px" method="auto" mode="F" radius="0" chamfer_steps="1" flexible="false" use_knot_distance="true" apply_no_radius="true" apply_with_radius="true" only_selected="true" hide_knots="false" /><inkscape:path-effect effect="spiro" id="path-effect850" is_visible="true" lpeversion="1" /><inkscape:path-effect effect="spiro" id="path-effect849" is_visible="true" lpeversion="1" /><inkscape:path-effect effect="spiro" id="path-effect851" is_visible="true" lpeversion="1" />
  <svg:style type="text/css" id="style2">
   
    .fil0 {fill:#EF7F1A;fill-rule:nonzero}
   
  </svg:style>
 <inkscape:path-effect effect="spiro" id="path-effect1214" is_visible="true" lpeversion="1" /><inkscape:path-effect effect="spiro" id="path-effect1195" is_visible="true" lpeversion="1" /><inkscape:path-effect effect="spiro" id="path-effect992" is_visible="true" lpeversion="1" /><inkscape:path-effect effect="spiro" id="path-effect1060" is_visible="true" lpeversion="1" /><inkscape:path-effect effect="spiro" id="path-effect1047" is_visible="true" lpeversion="1" /><inkscape:path-effect effect="spiro" id="path-effect1085" is_visible="true" lpeversion="1" /><inkscape:path-effect effect="spiro" id="path-effect1286" is_visible="true" lpeversion="1" /></svg:defs>
 
<svg:g id="path847"><svg:path style="color:#000000;clip-rule:nonzero;fill:#1a5fb4;fill-rule:nonzero;stroke-linecap:round;stroke-linejoin:round;-inkscape-stroke:none;paint-order:fill stroke markers;shape-rendering:auto" d="M 111.79883,171.5625 C 108.35709,171.45265 104.92649,171.70867 101.59961,172.32617 L 24.414062,186.65233999999998 C -2.4522063000000003,191.63894 -20.431554999999996,219.25343999999998 -14.966797,245.59569999999997 C -9.9802338,269.63287999999994 -6.0854897,293.89757999999995 -3.300781299999999,318.28711 C 11.025708000000002,443.76391 -4.281751199999999,573.7731 -7.095703099999999,706.6640600000001 C -7.629071699999999,731.85279 -7.690142099999999,757.0512500000001 -7.2792968999999985,782.24219 C -6.8122099999999985,810.8815800000001 20.325132,834.5110900000001 48.613281,831.4023400000001 L 129.08983999999998,822.5585900000001 C 143.66903,820.9564000000001 158.37149,812.6683 166.29492,799.5312500000001 C 174.21835,786.3942000000001 174.73253,770.1444000000001 169.89844,756.6347700000001 C 164.00521999999998,740.1652300000001 158.96708999999998,723.3879600000001 154.81445,706.3984400000002 C 124.72708,583.3032900000002 141.74044999999998,450.06483000000014 151.17382999999998,314.9531200000002 C 153.39145,283.1907300000002 155.11055,251.39250000000018 156.33007999999998,219.5761700000002 C 156.85031999999998,206.00354000000019 151.2858,191.6187200000002 140.58007999999998,182.4082000000002 C 132.55078999999998,175.5003200000002 122.12402999999998,171.89206000000019 111.79882999999998,171.5625000000002 L 111.79883,171.5625 M 95.582031,234.46875 C 94.45939,259.91985999999997 93.094692,285.35949 91.320312,310.77344 C 82.064164,443.3467 62.90636000000001,583.07651 96.53125,720.64453 C 100.13849,735.40268 104.52065,749.9537700000001 109.30469,764.37109 L 52.63867199999999,770.59961 C 52.41186299999999,749.71092 52.44838399999999,728.81875 52.89062499999999,707.93359 C 55.621114999999996,578.9841799999999 71.69568,446.21216 56.31249999999999,311.48046999999997 C 53.71829499999999,288.75944 50.05636499999999,266.17564 45.68164099999999,243.73046999999997 L 95.582031,234.46875" id="path29394" /></svg:g><svg:g id="path858"><svg:path style="color:#000000;clip-rule:nonzero;fill:#1a5fb4;fill-rule:nonzero;stroke-linecap:round;stroke-linejoin:round;-inkscape-stroke:none;paint-order:fill stroke markers;shape-rendering:auto" d="M 28.457031,10.902344 C 5.889979700000001,11.980808 -12.784092999999999,31.982689 -11.505859000000001,55.011719 L -6.882812500000001,138.2832 C -5.594976600000001,161.48523 14.338491999999999,180.09704 37.574219,179.79102 L 112.4668,178.80469 C 135.67444,178.49903 155.10562000000002,159.43770999999998 155.85742,136.24023 L 158.27344,61.642578 C 159.02861,38.340918 140.61704,18.027777 117.35352,16.496094 L 33.019531,10.943359 C 31.485221,10.842339999999998 29.961501000000002,10.830445999999998 28.457031,10.902349 L 28.457031,10.902344 M 49.539062,72.162109 L 97.798828,75.337891 L 96.384766,119.01172 L 52.169922,119.59375 L 49.539062,72.162109" id="path29400" /></svg:g></svg:svg>

<svg:svg xmlns:cc="http://creativecommons.org/ns#" xmlns:dc="http://purl.org/dc/elements/1.1/" xmlns:inkscape="http://www.inkscape.org/namespaces/inkscape" xmlns:rdf="http://www.w3.org/1999/02/22-rdf-syntax-ns#" xmlns:sodipodi="http://sodipodi.sourceforge.net/DTD/sodipodi-0.dtd" xmlns:svg="http://www.w3.org/2000/svg" xml:space="preserve" width="1000" height="1000" version="1.1" style="clip-rule:evenodd;fill-rule:evenodd;image-rendering:optimizeQuality;shape-rendering:geometricPrecision;text-rendering:geometricPrecision" viewBox="0 0 1000 1000" id="svg10" sodipodi:docname="i.svg" inkscape:version="1.1.1 (3bf5ae0d25, 2021-09-20)"><svg:text text-anchor="middle" x="71.856949" y="1.6950607" id="top" inkscape:label="top" style="clip-rule:evenodd;fill-rule:evenodd;image-rendering:optimizeQuality;shape-rendering:geometricPrecision;text-rendering:geometricPrecision">✛</svg:text><svg:metadata id="metadata14"><rdf:RDF><cc:Work rdf:about=""><dc:format>image/svg+xml</dc:format><dc:type rdf:resource="http://purl.org/dc/dcmitype/StillImage" /></cc:Work></rdf:RDF></svg:metadata><sodipodi:namedview pagecolor="#ffffff" bordercolor="#666666" borderopacity="1" objecttolerance="10" gridtolerance="10" guidetolerance="10" inkscape:pageopacity="0" inkscape:pageshadow="2" inkscape:window-width="1920" inkscape:window-height="1009" id="namedview12" showgrid="false" inkscape:zoom="0.84890884" inkscape:cx="157.2607" inkscape:cy="494.75277" inkscape:window-x="0" inkscape:window-y="0" inkscape:window-maximized="1" inkscape:current-layer="svg10" showguides="true" inkscape:guide-bbox="true" inkscape:document-rotation="0" inkscape:pagecheckerboard="0"><sodipodi:guide position="0,1000" orientation="0,1" id="guide16" inkscape:label="" inkscape:locked="true" inkscape:color="rgb(0,0,255)" /><sodipodi:guide position="1763.3122,2036.1693" orientation="1000,0" id="guide18" /><sodipodi:guide position="0,200" orientation="0,1" id="guide20" inkscape:label="base" inkscape:locked="true" inkscape:color="rgb(0,0,255)" /><inkscape:grid type="xygrid" id="grid24" originx="-473.37552" originy="-489.69235" /><sodipodi:guide position="0,0" orientation="0,1" id="guide34" inkscape:label="bottom" inkscape:locked="true" inkscape:color="rgb(0,0,255)" /><sodipodi:guide position="225.05109,1693.3186" orientation="0,1" id="guide44" inkscape:label="" inkscape:locked="false" inkscape:color="rgb(0,0,255)" /><sodipodi:guide position="0,900" orientation="0,1" id="guide46" inkscape:label="" inkscape:locked="true" inkscape:color="rgb(0,0,255)" /><sodipodi:guide position="146.82178,873.03098" orientation="1,0" id="guide841" inkscape:label="width" />    <sodipodi:guide position="312.16544,800.92091" orientation="0,-1" id="guide848" /></sodipodi:namedview>
 <svg:defs id="defs4"><inkscape:path-effect effect="fillet_chamfer" id="path-effect862" is_visible="true" lpeversion="1" satellites_param="F,0,1,1,0,13.369101,0,1 @ F,0,1,1,0,13.369101,0,1 @ F,0,1,1,0,13.369101,0,1 @ F,0,1,1,0,13.369101,0,1" unit="px" method="auto" mode="F" radius="0" chamfer_steps="1" flexible="false" use_knot_distance="true" apply_no_radius="true" apply_with_radius="true" only_selected="true" hide_knots="false" /><inkscape:path-effect effect="spiro" id="path-effect860" is_visible="true" lpeversion="1" /><inkscape:path-effect effect="skeletal" id="path-effect856" is_visible="true" lpeversion="1" pattern="M 0,5 C 0,2.24 2.24,0 5,0 7.76,0 10,2.24 10,5 10,7.76 7.76,10 5,10 2.24,10 0,7.76 0,5 Z" copytype="single_stretched" prop_scale="1" scale_y_rel="false" spacing="0" normal_offset="0" tang_offset="0" prop_units="false" vertical_pattern="false" hide_knot="false" fuse_tolerance="0" /><inkscape:path-effect effect="fillet_chamfer" id="path-effect852" is_visible="true" lpeversion="1" satellites_param="F,0,0,1,0,22.266307,0,1 @ F,0,0,1,0,0,0,1 @ F,0,0,1,0,0,0,1 @ F,0,0,1,0,20.14841,0,1 @ F,0,0,1,0,20.328464,0,1 @ F,0,0,1,0,0,0,1 @ F,0,0,1,0,0,0,1 @ F,0,0,1,0,24.932914,0,1" unit="px" method="auto" mode="F" radius="0" chamfer_steps="1" flexible="false" use_knot_distance="true" apply_no_radius="true" apply_with_radius="true" only_selected="true" hide_knots="false" /><inkscape:path-effect effect="spiro" id="path-effect850" is_visible="true" lpeversion="1" /><inkscape:path-effect effect="spiro" id="path-effect849" is_visible="true" lpeversion="1" /><inkscape:path-effect effect="spiro" id="path-effect851" is_visible="true" lpeversion="1" />
  <svg:style type="text/css" id="style2">
   
    .fil0 {fill:#EF7F1A;fill-rule:nonzero}
   
  </svg:style>
 <inkscape:path-effect effect="spiro" id="path-effect1214" is_visible="true" lpeversion="1" /><inkscape:path-effect effect="spiro" id="path-effect1195" is_visible="true" lpeversion="1" /><inkscape:path-effect effect="spiro" id="path-effect992" is_visible="true" lpeversion="1" /><inkscape:path-effect effect="spiro" id="path-effect1060" is_visible="true" lpeversion="1" /><inkscape:path-effect effect="spiro" id="path-effect1047" is_visible="true" lpeversion="1" /><inkscape:path-effect effect="spiro" id="path-effect1085" is_visible="true" lpeversion="1" /><inkscape:path-effect effect="spiro" id="path-effect1286" is_visible="true" lpeversion="1" /></svg:defs>
 
<svg:g id="path847"><svg:path style="color:#000000;clip-rule:nonzero;fill:#1a5fb4;fill-rule:nonzero;stroke-linecap:round;stroke-linejoin:round;-inkscape-stroke:none;shape-rendering:auto" d="m 111.79883,171.5625 c -3.44174,-0.10985 -6.87234,0.14617 -10.19922,0.76367 l -77.185548,14.32617 c -26.8662683,4.9866 -44.845617,32.6011 -39.380859,58.94336 4.9865632,24.03718 8.8813073,48.30188 11.6660157,72.69141 14.3264893,125.4768 -0.9809699,255.48599 -3.7949218,388.37695 -0.5333686,25.18873 -0.594439,50.38719 -0.1835938,75.57813 0.4670869,28.63939 27.6044289,52.2689 55.8925779,49.16015 l 80.476559,-8.84375 c 14.57919,-1.60219 29.28165,-9.89029 37.20508,-23.02734 7.92343,-13.13705 8.43761,-29.38685 3.60352,-42.89648 -5.89322,-16.46954 -10.93135,-33.24681 -15.08399,-50.23633 -30.08737,-123.09515 -13.074,-256.33361 -3.64062,-391.44532 2.21762,-31.76239 3.93672,-63.56062 5.15625,-95.37695 0.52024,-13.57263 -5.04428,-27.95745 -15.75,-37.16797 -8.02929,-6.90788 -18.45605,-10.51614 -28.78125,-10.8457 z m -16.216799,62.90625 c -1.122641,25.45111 -2.487339,50.89074 -4.261719,76.30469 -9.256148,132.57326 -28.413952,272.30307 5.210938,409.87109 3.60724,14.75815 7.9894,29.30924 12.77344,43.72656 l -56.666018,6.22852 c -0.226809,-20.88869 -0.190288,-41.78086 0.251953,-62.66602 2.73049,-128.94941 18.805055,-261.72143 3.421875,-396.45312 -2.594205,-22.72103 -6.256135,-45.30483 -10.630859,-67.75 z" id="path29306" /></svg:g><svg:g id="path858"><svg:path style="color:#000000;clip-rule:nonzero;fill:#1a5fb4;fill-rule:nonzero;stroke-linecap:round;stroke-linejoin:round;-inkscape-stroke:none;shape-rendering:auto" d="m 28.457031,10.902344 c -22.5670513,1.078464 -41.241124,21.080345 -39.96289,44.109375 l 4.6230465,83.271481 c 1.2878359,23.20203 21.2213045,41.81384 44.4570315,41.50782 l 74.892581,-0.98633 c 23.20764,-0.30566 42.63882,-19.36698 43.39062,-42.56446 l 2.41602,-74.597652 c 0.75517,-23.30166 -17.6564,-43.614801 -40.91992,-45.146484 L 33.019531,10.943359 c -1.53431,-0.101019 -3.05803,-0.112913 -4.5625,-0.04101 z m 21.082031,61.259765 48.259766,3.175782 -1.414062,43.673829 -44.214844,0.58203 z" id="path29312" /></svg:g></svg:svg>
